svgs/sharp-thin/grid-4.svg

<svg xmlns="http://www.w3.org/2000/svg" viewBox="0 0 448 512"><!--! Font Awesome Pro 6.6.0 by @fontawesome - https://fontawesome.com License - https://fontawesome.com/license (Commercial License) Copyright 2024 Fonticons, Inc. --><path d="M16 48l0 57.6 57.6 0 0-57.6L16 48zm0 119.5l0 57.6 57.6 0 0-57.6-57.6 0zM0 270.9l16 0 57.6 0 16 0 0 16 0 57.6 0 16-16 0-57.6 0-16 0 0-16 0-57.6 0-16zm73.6 73.6l0-57.6-57.6 0 0 57.6 57.6 0zM16 406.4L16 464l57.6 0 0-57.6-57.6 0zM89.6 32l0 16 0 57.6 0 16-16 0-57.6 0-16 0 0-16L0 48 0 32l16 0 57.6 0 16 0zm0 119.5l0 16 0 57.6 0 16-16 0-57.6 0-16 0 0-16 0-57.6 0-16 16 0 57.6 0 16 0zm0 238.9l0 16 0 57.6 0 16-16 0L16 480 0 480l0-16 0-57.6 0-16 16 0 57.6 0 16 0zM135.5 48l0 57.6 57.6 0 0-57.6-57.6 0zm0 119.5l0 57.6 57.6 0 0-57.6-57.6 0zm-16 103.5l16 0 57.6 0 16 0 0 16 0 57.6 0 16-16 0-57.6 0-16 0 0-16 0-57.6 0-16zm73.6 73.6l0-57.6-57.6 0 0 57.6 57.6 0zm-57.6 61.9l0 57.6 57.6 0 0-57.6-57.6 0zM209.1 32l0 16 0 57.6 0 16-16 0-57.6 0-16 0 0-16 0-57.6 0-16 16 0 57.6 0 16 0zm0 119.5l0 16 0 57.6 0 16-16 0-57.6 0-16 0 0-16 0-57.6 0-16 16 0 57.6 0 16 0zm0 238.9l0 16 0 57.6 0 16-16 0-57.6 0-16 0 0-16 0-57.6 0-16 16 0 57.6 0 16 0zM312.5 48l-57.6 0 0 57.6 57.6 0 0-57.6zm0 119.5l-57.6 0 0 57.6 57.6 0 0-57.6zM238.9 286.9l0-16 16 0 57.6 0 16 0 0 16 0 57.6 0 16-16 0-57.6 0-16 0 0-16 0-57.6zm16 57.6l57.6 0 0-57.6-57.6 0 0 57.6zm57.6 61.9l-57.6 0 0 57.6 57.6 0 0-57.6zm0-374.4l16 0 0 16 0 57.6 0 16-16 0-57.6 0-16 0 0-16 0-57.6 0-16 16 0 57.6 0zm0 119.5l16 0 0 16 0 57.6 0 16-16 0-57.6 0-16 0 0-16 0-57.6 0-16 16 0 57.6 0zm0 238.9l16 0 0 16 0 57.6 0 16-16 0-57.6 0-16 0 0-16 0-57.6 0-16 16 0 57.6 0zM374.4 48l0 57.6 57.6 0L432 48l-57.6 0zm0 119.5l0 57.6 57.6 0 0-57.6-57.6 0zm-16 103.5l16 0 57.6 0 16 0 0 16 0 57.6 0 16-16 0-57.6 0-16 0 0-16 0-57.6 0-16zM432 344.5l0-57.6-57.6 0 0 57.6 57.6 0zm-57.6 61.9l0 57.6 57.6 0 0-57.6-57.6 0zM448 32l0 16 0 57.6 0 16-16 0-57.6 0-16 0 0-16 0-57.6 0-16 16 0L432 32l16 0zm0 119.5l0 16 0 57.6 0 16-16 0-57.6 0-16 0 0-16 0-57.6 0-16 16 0 57.6 0 16 0zm0 238.9l0 16 0 57.6 0 16-16 0-57.6 0-16 0 0-16 0-57.6 0-16 16 0 57.6 0 16 0z"/></svg>

<svg xmlns="http://www.w3.org/2000/svg" viewBox="0 0 448 512"><!--! Font Awesome Pro 6.5.2 by @fontawesome - https://fontawesome.com License - https://fontawesome.com/license (Commercial License) Copyright 2024 Fonticons, Inc. --><path d="M16 48v57.6H73.6V48H16zm0 119.5v57.6H73.6V167.5H16zM0 270.9H16 73.6h16v16 57.6 16h-16H16 0v-16V286.9v-16zm73.6 73.6V286.9H16v57.6H73.6zM16 406.4V464H73.6V406.4H16zM89.6 32V48v57.6 16h-16H16 0v-16V48 32H16 73.6h16zm0 119.5v16 57.6 16h-16H16 0v-16V167.5v-16H16 73.6h16zm0 238.9v16V464v16h-16H16 0V464 406.4v-16H16 73.6h16zM135.5 48v57.6h57.6V48H135.5zm0 119.5v57.6h57.6V167.5H135.5zm-16 103.5h16 57.6 16v16 57.6 16h-16H135.5h-16v-16V286.9v-16zm73.6 73.6V286.9H135.5v57.6h57.6zm-57.6 61.9V464h57.6V406.4H135.5zM209.1 32V48v57.6 16h-16H135.5h-16v-16V48 32h16 57.6 16zm0 119.5v16 57.6 16h-16H135.5h-16v-16V167.5v-16h16 57.6 16zm0 238.9v16V464v16h-16H135.5h-16V464 406.4v-16h16 57.6 16zM312.5 48H254.9v57.6h57.6V48zm0 119.5H254.9v57.6h57.6V167.5zM238.9 286.9v-16h16 57.6 16v16 57.6 16h-16H254.9h-16v-16V286.9zm16 57.6h57.6V286.9H254.9v57.6zm57.6 61.9H254.9V464h57.6V406.4zm0-374.4h16V48v57.6 16h-16H254.9h-16v-16V48 32h16 57.6zm0 119.5h16v16 57.6 16h-16H254.9h-16v-16V167.5v-16h16 57.6zm0 238.9h16v16V464v16h-16H254.9h-16V464 406.4v-16h16 57.6zM374.4 48v57.6H432V48H374.4zm0 119.5v57.6H432V167.5H374.4zm-16 103.5h16H432h16v16 57.6 16H432 374.4h-16v-16V286.9v-16zM432 344.5V286.9H374.4v57.6H432zm-57.6 61.9V464H432V406.4H374.4zM448 32V48v57.6 16H432 374.4h-16v-16V48 32h16H432h16zm0 119.5v16 57.6 16H432 374.4h-16v-16V167.5v-16h16H432h16zm0 238.9v16V464v16H432 374.4h-16V464 406.4v-16h16H432h16z"/></svg>
